X:1
T:Sicilienne
T:Maria Theresia von Paradis
T:Arreglo para piano y clarinete en Si b
%%score 1 { ( 2 4 ) | 3 }
L:1/8
Q:1/4=100
M:6/8
K:Eb
V:1 treble transpose=-2 nm="Clarinete en Si b"
V:2 treble nm="Piano"
V:4 treble 
V:3 bass 
V:1
[K:F]!p! A |: c2- c _d-d/c/B | (c2 A){Bc} BB/A/G | A-A/C/F/A/ (TG2 G) | A4- Ac | %5
!mf! (f2 c) _d-d/c/B |!<(! c2 f/g/ a2- a!<)! |!f! (a2 e) f-f/e/d |!p! (a2 e) (f2 d) | %9
 _e-(e/d/)c/B/ (A2 ^C) |1 (D3 D2) A :|2 (D3 D2) c |:!f! a2- a d-d/e/f | %13
 g-g/a/g c2-!p!!p! !tenuto!c | a2- a d-d/e/f | g-g/a/g!<(! c2- !tenuto!c!<)! | %16
!mf! b2- b- b/(a/g/)f/e/d/ | a2- a- a/(g/f/)e/d/c/ | g2- g- g/(f/e/)d/e/f/ | %19
!<(! GG/A/B A2!>(! G!<)!!>)! |!p! _e2- (e e/)(d/^c/)d/g/b/ | a-(a/c/)f/a/!<(! Tg2- g!<)! | %22
!f! _e'2- e'- e'/(d'/^c'/)d'/g/b/ | a-(a/c/)f/a/!>(! Tg2- g!>)! |1 f3- f2 c :|2 (f3 f2) A || %26
!p! c2- !tenuto!c _d-d/c/B | (c2 A){Bc} B-B/A/G |!<(! A-A/C/(F/A/) TG2- G!<)! | %29
 A-A/C/!>(!(F/A/) (TG2 !tenuto!F/)!tenuto!G/!>)! | F4- F2- | F2- F z z2 |] %32
V:2
 z |:!p! [B,EG]2 [B,EG] [_CEA]2 [CEA] | [B,EG]2 [B,EG] [_CEF]2 [CEA] | %3
 [B,EG]2 [B,EG] [A,EF]2 [A,DF] | [G,B,E]2 [G,B,E] [G,B,E]2 [B,EG] | %5
!mf! [B,EB]2 [B,EB] [_CEA]2 [EA_c] |!<(! [EB]2 [EB] [DGd]2 [DGd]!<)! | %7
!f! [FGd]2 [FGd] [EGc]2 [Gce] |!p! [FGd]2 [FGd] [EGc]2 [EGc] | [FA_d]2 [FAd] [FG=B]2 [=B,FG] |1 %10
 [CEG]2 [CEG] [CEG]2 z :|2 [CEG]2 [CEG] [CEG]2 z |:!f! [GB]2 [GB] [GBc]2 [GBc] | %13
 [EFAc]2 [FAc] [FAB]2!p! [FAB] | [GB]2 [GB] [GBc]2 [GBc] | [EFAc]2 [FAc] [FAB]2 [AB] | %16
!mf! [EAc]2 [EAc] [DAc]2 [DAc] | [DGB]2 [DGB] [CGB]2 [CGB] | [CFA]2 [CFA] [B,FG]2 [B,DF] | %19
 [CE]2 [CEF] [EG]2 [EF] |!pp! [_DGB]2 [DGB] [CFA]2 [CEF] | [EG]2 [EG] [A,EF]2 [A,EF] | %22
!f! [_DGB]2 [DGB] [CFA]2 [CEF] | [EG]2 [EG] [A,EF]2 [A,EF] |1 [G,B,E]2 [G,B,E] [G,B,E]2 z :|2 %25
!p! [G,B,E]2 [G,B,E] [G,B,E]2 z ||!pp!!pp! [B,EG]2 [B,EG] [_CEA]2 [CEA] | %27
 [B,EG]2 [B,EG] [_CEF]2 [CEA] | [B,EG]2 [B,EG] [A,EF]2 [A,EF] | [B,EG]2 [B,EG] [A,EF]2 [A,DF] | %30
 [G,B,E]2 [G,B,E] [G,B,E]2 [G,B,E] | [G,B,E]2-!pp! [G,B,E] z z2 |] %32
V:3
 z |: [E,,E,]2 E, E,2 E, | [E,,E,]2 E, E,2 E, | [E,,E,]2 E, B,,2 B,, | [E,,E,]2 E, E,2 E, | %5
 G,2 G, A,2 A, | G,2 G, B,2 B, | =B,2 B, C2 C | =B,2 B, C2 C | F,2 F, G,2 G,, |1 %10
 [C,G,]2 C, C,2 z :|2 [C,G,]2 C, C,2 z |: z6 | z6 | z6 | z4!<(! z B,!<)! | %16
 F,2 F, [B,,B,]2 [B,,B,] | E,2 E, [A,,A,]2 [A,,A,] | D,2 D, [G,,G,]2 [G,,G,] | %19
 [A,,A,]2 [A,,A,] [B,,B,]2 [B,,B,] | [=E,,=E,]2 E, [F,,F,]2 [A,,A,] | %21
 [B,,B,]2 B, [B,,B,]2 [B,,B,] | [=E,,=E,]2 [E,,E,] [F,,F,]2 [A,,A,] | %23
 [B,,B,]2 B,!>(! [B,,B,]2 B,,!>)! |1 [E,,E,]2 E, E,2 z :|2 [E,,E,]2 E, E,2 z || %26
 [E,,E,]2 E, E,2 E, | [E,,E,]2 E, E,2 E, |!<(! [E,,E,]2 E, B,,2 B,,!<)! | [E,,E,]2 E, B,,2 B,, | %30
!>(! [E,,E,]2 E, E,2 E,!>)! | E,2- E, z z2 |] %32
V:4
 x |: x6 | x6 | x6 | x6 | x6 | x6 | x6 | x6 | x6 |1 x6 :|2 x6 |: E2 E E2 E | E2 E D2 D | %14
 E2 E E2 E | E2 E D2 D | x6 | x6 | x6 | x6 | x6 | x6 | x6 | x6 |1 x6 :|2 x6 || x6 | x6 | x6 | x6 | %30
 x6 | x6 |] %32

